X: 5205
T: British Grenadiers' March
R: polka
M: 2/4
K: Dmajor
A|:dA de|fg/f/ ef/g/|ad {g}f/e/d/c/|1 d2 dA:|2 d2d||
|:f/g/|a2 ag|f>g ad|de/f/ gf|e3A|
dc/d/ ed/e/|fe/f/ gf/g/|ad {g}f/e/d/c/|d2d:|

